X:76
%%etbk:tnset id:26,pos:1,rep:3x,ant:
%%etbk:wsite http://www.thesession.org/tunes/display/517
%%etbk:skill ?
%%etbk:pldat 2013-08-27T18:43,2013-04-30T16:18
T: Pigeon On The Gate, The
Z: Piano Box Version by Martin Fleischmann
H: Created 2013-02-19 /  Last Modified 2013-04-11
M: 4/4
L: 1/8
R: reel
K: Edor
|: "em"!3!B!1!E !3!(3E!2!E!1!E !3!BE!5!dE | !3!B!1!E !3!(3E!2!E!1!E !5!d!4!B!3!A!2!F | "D"!1!D2 !3!(3FED !5!AD!3!FE  | !1!DE!3!F!4!A !5!BA!3!F!4!A |
"em"!5!B!1!E !3!(3E!2!E!1!E !3!BE!5!dE | !3!B!1!E !3!(3E!2!E!1!E !5!B2 !4!A!2!F | "D"!1!D2 !2!F!1!A !3!d!5!f!4!e!2!c | !3!d!2!B!1!A!2!F "em"!1!E4:|
|: "em"!2!B!5!e!3!ed !4!efe!2!d | !1!B!2!def !5!ge!2!d!1!B | "D"!1!A!3!ddc !3!d{e}dd!2!B | !1!A2 !3!FE !1!DE!3!F!4!A |
"em"!1!B!3!e!3!ed !3!efed | !1!B!2!def !5!g2 !3!fg | "D"!5!af!4!ge !3!fd!5!ec | !4!d!2!B!1!A!2!F "em"!1!E4:|
